icons/hm.svg

<?xml version="1.0" ?>
<svg xmlns="http://www.w3.org/2000/svg" xmlns:ev="http://www.w3.org/2001/xml-events" xmlns:xlink="http://www.w3.org/1999/xlink" baseProfile="full" height="382px" version="1.1" viewBox="-1027.0644965243482 1210.346995871881 12294.963150861775 7826.092946124348" width="600px">
	<defs/>
	<path d="M 851.0,8341.0 C 821.0,8282.0 766.0,8246.0 582.0,8161.0 C 243.0,8003.0 143.0,7944.0 65.0,7858.0 C -10.0,7775.0 -16.0,7712.0 35.0,7553.0 C 49.0,7506.0 65.0,7426.0 70.0,7368.0 C 83.0,7230.0 94.0,7195.0 143.0,7144.0 C 213.0,7072.0 619.0,6842.0 758.0,6796.0 L 811.0,6778.0 L 969.0,6854.0 C 1055.0,6896.0 1138.0,6930.0 1152.0,6930.0 C 1166.0,6930.0 1319.0,6903.0 1491.0,6869.0 C 1664.0,6836.0 1834.0,6804.0 1870.0,6798.0 C 1923.0,6789.0 1942.0,6781.0 1973.0,6752.0 C 2021.0,6706.0 2021.0,6675.0 1975.0,6620.0 C 1930.0,6566.0 1925.0,6543.0 1939.0,6460.0 C 1945.0,6422.0 1950.0,6352.0 1950.0,6303.0 L 1950.0,6215.0 L 2018.0,6214.0 C 2092.0,6214.0 2162.0,6188.0 2198.0,6149.0 C 2219.0,6127.0 2220.0,6118.0 2220.0,5900.0 L 2220.0,5674.0 L 2185.0,5616.0 C 2144.0,5548.0 2081.0,5460.0 2015.0,5378.0 L 1969.0,5320.0 L 2002.0,5305.0 C 2020.0,5297.0 2071.0,5277.0 2115.0,5260.0 C 2225.0,5219.0 2255.0,5198.0 2294.0,5138.0 C 2373.0,5014.0 2427.0,4846.0 2495.0,4517.0 C 2533.0,4335.0 2543.0,4263.0 2551.0,4120.0 C 2572.0,3741.0 2595.0,3683.0 2888.0,3260.0 C 3036.0,3046.0 3118.0,2892.0 3159.0,2747.0 C 3199.0,2607.0 3224.0,2560.0 3314.0,2453.0 C 3416.0,2331.0 3648.0,2106.0 3750.0,2030.0 C 3956.0,1877.0 4057.0,1871.0 4246.0,1997.0 C 4328.0,2052.0 4379.0,2070.0 4457.0,2070.0 C 4500.0,2070.0 4701.0,2034.0 5052.0,1965.0 C 5559.0,1864.0 5585.0,1860.0 5639.0,1871.0 C 5777.0,1899.0 6037.0,2023.0 6240.0,2158.0 C 6334.0,2220.0 6384.0,2263.0 6515.0,2398.0 C 6603.0,2488.0 6740.0,2615.0 6820.0,2680.0 C 7009.0,2834.0 7060.0,2885.0 7060.0,2920.0 C 7060.0,2965.0 7020.0,3011.0 6945.0,3051.0 C 6825.0,3116.0 6802.0,3168.0 6859.0,3247.0 C 6897.0,3300.0 6966.0,3358.0 7000.0,3365.0 C 7057.0,3377.0 7133.0,3310.0 7215.0,3175.0 C 7238.0,3137.0 7269.0,3097.0 7283.0,3086.0 L 7309.0,3067.0 L 7428.0,3182.0 C 7494.0,3245.0 7585.0,3321.0 7631.0,3352.0 C 7677.0,3383.0 7780.0,3456.0 7860.0,3514.0 C 8025.0,3635.0 8191.0,3723.0 8297.0,3745.0 C 8334.0,3753.0 8445.0,3764.0 8543.0,3769.0 C 8760.0,3782.0 8816.0,3795.0 8962.0,3861.0 C 9024.0,3889.0 9098.0,3920.0 9126.0,3930.0 C 9205.0,3958.0 9440.0,3997.0 9724.0,4030.0 C 10135.0,4078.0 10172.0,4085.0 10213.0,4128.0 C 10239.0,4155.0 10241.0,4163.0 10238.0,4220.0 C 10235.0,4283.0 10234.0,4284.0 10202.0,4292.0 C 10175.0,4299.0 10164.0,4297.0 10137.0,4277.0 C 10088.0,4239.0 10051.0,4224.0 9980.0,4211.0 C 9944.0,4204.0 9787.0,4167.0 9630.0,4130.0 C 8991.0,3976.0 8855.0,3962.0 8655.0,4031.0 C 8600.0,4049.0 8479.0,4103.0 8385.0,4150.0 C 8253.0,4216.0 8211.0,4242.0 8193.0,4268.0 C 8180.0,4288.0 8119.0,4335.0 8038.0,4387.0 C 7677.0,4619.0 7387.0,4858.0 7252.0,5033.0 C 7187.0,5117.0 7062.0,5360.0 7044.0,5437.0 C 7036.0,5474.0 7018.0,5524.0 7004.0,5547.0 C 6991.0,5570.0 6935.0,5673.0 6879.0,5777.0 C 6755.0,6008.0 6675.0,6130.0 6575.0,6238.0 C 6458.0,6363.0 6439.0,6372.0 6256.0,6380.0 C 6084.0,6388.0 6006.0,6406.0 5907.0,6457.0 C 5826.0,6500.0 5742.0,6586.0 5699.0,6671.0 C 5659.0,6752.0 5608.0,6805.0 5552.0,6827.0 C 5514.0,6842.0 5484.0,6844.0 5390.0,6841.0 C 5116.0,6831.0 5126.0,6830.0 5012.0,6884.0 C 4955.0,6910.0 4894.0,6932.0 4877.0,6932.0 C 4859.0,6932.0 4798.0,6918.0 4740.0,6900.0 C 4576.0,6851.0 4506.0,6868.0 4379.0,6987.0 C 4292.0,7070.0 4274.0,7080.0 4222.0,7080.0 C 4142.0,7080.0 4093.0,7008.0 4104.0,6904.0 C 4110.0,6843.0 4110.0,6840.0 4077.0,6808.0 C 3933.0,6664.0 3296.0,6537.0 3013.0,6596.0 C 2926.0,6614.0 2819.0,6664.0 2776.0,6706.0 C 2711.0,6771.0 2706.0,6832.0 2751.0,6999.0 C 2785.0,7128.0 2784.0,7155.0 2741.0,7247.0 C 2711.0,7310.0 2661.0,7360.0 2629.0,7360.0 C 2531.0,7360.0 2415.0,7171.0 2379.0,6953.0 C 2369.0,6889.0 2369.0,6879.0 2389.0,6835.0 C 2429.0,6744.0 2414.0,6697.0 2333.0,6656.0 C 2270.0,6625.0 2241.0,6638.0 2192.0,6721.0 C 2180.0,6741.0 2138.0,6781.0 2100.0,6809.0 C 2012.0,6875.0 1934.0,6968.0 1850.0,7105.0 C 1761.0,7252.0 1682.0,7358.0 1586.0,7460.0 C 1492.0,7560.0 1403.0,7712.0 1391.0,7795.0 C 1375.0,7904.0 1323.0,7968.0 1175.0,8065.0 C 1012.0,8171.0 975.0,8217.0 934.0,8368.0 C 932.0,8374.0 917.0,8380.0 901.0,8380.0 C 876.0,8380.0 867.0,8373.0 851.0,8341.0" fill="pink"/>
</svg>

<?xml version="1.0" standalone="no"?>
<!DOCTYPE svg PUBLIC "-//W3C//DTD SVG 20010904//EN"
 "http://www.w3.org/TR/2001/REC-SVG-20010904/DTD/svg10.dtd">
<svg version="1.0" xmlns="http://www.w3.org/2000/svg"
 width="1024.000000pt" height="1024.000000pt" viewBox="0 0 1024.000000 1024.000000"
 preserveAspectRatio="xMidYMid meet">
<metadata>
Created by potrace 1.10, written by Peter Selinger 2001-2011
</metadata>
<g transform="translate(0.000000,1024.000000) scale(0.100000,-0.100000)"
fill="#000000" stroke="none">
<path d="M851 8341 c-30 -59 -85 -95 -269 -180 -339 -158 -439 -217 -517 -303
-75 -83 -81 -146 -30 -305 14 -47 30 -127 35 -185 13 -138 24 -173 73 -224 70
-72 476 -302 615 -348 l53 -18 158 76 c86 42 169 76 183 76 14 0 167 -27 339
-61 173 -33 343 -65 379 -71 53 -9 72 -17 103 -46 48 -46 48 -77 2 -132 -45
-54 -50 -77 -36 -160 6 -38 11 -108 11 -157 l0 -88 68 -1 c74 0 144 -26 180
-65 21 -22 22 -31 22 -249 l0 -226 -35 -58 c-41 -68 -104 -156 -170 -238 l-46
-58 33 -15 c18 -8 69 -28 113 -45 110 -41 140 -62 179 -122 79 -124 133 -292
201 -621 38 -182 48 -254 56 -397 21 -379 44 -437 337 -860 148 -214 230 -368
271 -513 40 -140 65 -187 155 -294 102 -122 334 -347 436 -423 206 -153 307
-159 496 -33 82 55 133 73 211 73 43 0 244 -36 595 -105 507 -101 533 -105
587 -94 138 28 398 152 601 287 94 62 144 105 275 240 88 90 225 217 305 282
189 154 240 205 240 240 0 45 -40 91 -115 131 -120 65 -143 117 -86 196 38 53
107 111 141 118 57 12 133 -55 215 -190 23 -38 54 -78 68 -89 l26 -19 119 115
c66 63 157 139 203 170 46 31 149 104 229 162 165 121 331 209 437 231 37 8
148 19 246 24 217 13 273 26 419 92 62 28 136 59 164 69 79 28 314 67 598 100
411 48 448 55 489 98 26 27 28 35 25 92 -3 63 -4 64 -36 72 -27 7 -38 5 -65
-15 -49 -38 -86 -53 -157 -66 -36 -7 -193 -44 -350 -81 -639 -154 -775 -168
-975 -99 -55 18 -176 72 -270 119 -132 66 -174 92 -192 118 -13 20 -74 67
-155 119 -361 232 -651 471 -786 646 -65 84 -190 327 -208 404 -8 37 -26 87
-40 110 -13 23 -69 126 -125 230 -124 231 -204 353 -304 461 -117 125 -136
134 -319 142 -172 8 -250 26 -349 77 -81 43 -165 129 -208 214 -40 81 -91 134
-147 156 -38 15 -68 17 -162 14 -274 -10 -264 -11 -378 43 -57 26 -118 48
-135 48 -18 0 -79 -14 -137 -32 -164 -49 -234 -32 -361 87 -87 83 -105 93
-157 93 -80 0 -129 -72 -118 -176 6 -61 6 -64 -27 -96 -144 -144 -781 -271
-1064 -212 -87 18 -194 68 -237 110 -65 65 -70 126 -25 293 34 129 33 156 -10
248 -30 63 -80 113 -112 113 -98 0 -214 -189 -250 -407 -10 -64 -10 -74 10
-118 40 -91 25 -138 -56 -179 -63 -31 -92 -18 -141 65 -12 20 -54 60 -92 88
-88 66 -166 159 -250 296 -89 147 -168 253 -264 355 -94 100 -183 252 -195
335 -16 109 -68 173 -216 270 -163 106 -200 152 -241 303 -2 6 -17 12 -33 12
-25 0 -34 -7 -50 -39z"/>
</g>
</svg>
